X:158
T: Der grausame Bruder
N: Q2068C
O: Nordeuropa, Schweden
N: Schwedische Fassung der Ballade.
R: Ballade, Schwangerschaft, Moral, Mord
M: 2/4
L: 1/8
K: G
 | G2AA | _B2BA | _B2cc | d2Ac | _B2A2 | z3
A | A2_Bc | d2Ac | _B2FF | G2
A2 | _Bcd_e | d2FA | A2G2

